!!!!SEGMENT: pl-wtm--r-1664--008_stefani-jozef--okropnosc-czyli-nowa-lafarge-no-7-quodlibet.krn
!!!cenid: 18xx:2063
!!!COM: Stefani, Józef
!!!COM-rismID: pe30024097
!!!CDT: 1800/04/16-1876/03/19
!!!CNT: Polish
!!!OPR: Okropność czyli Nowa Lafarge
!!!OTL: No. 7 - Quodlibet
!!!OMV: 008
!!!PDT:
!!!AGN: Secular
!!!SMS-siglum: PL-Wtm
!!!SMS-shelfmark: R 1664
!!!SMS-shelfwork: 001-008 M
!!!SMS-variant:
!!!SMS-altvar:
!!!NIFC-rismSourceID: 1001114328
!!!NIFC-islandoraID: pl-wtm:27523
!!!URL-pdf-islandora: https://repozytorium.nifc.pl/islandora/object/pl-wtm%3A27523/datastream/PDF/view
!!!URL-scan: https://polish.musicsources.pl/pl/lokalizacje/galeria/rekopisy/6406 @EN{Scan on Polish Music Sources Website} @PL{Skany w portalu Dziedzictwo Muzyki Polskiej w otwartym dostępie}
!!!ONB-nifc: UWAGA: skany 0034-0038. Nast. cz.: Presto
!!!AIN: 1 cello 1 clars 1 cor 2 empty 1 fagot 1 flt 1 oboe 1 timpa 1 tromp 1 tromt 1 viola 3 violn
!!!key:
**kern	**dynam	**kern	**kern	**text	**kern	**kern	**kern	**dynam	**kern	**kern	**kern	**kern	**kern	**kern	**dynam	**kern	**dynam	**kern	**kern	**dynam
*part15	*part15	*part14	*part13	*part13	*part12	*part11	*part10	*part10	*part9	*part8	*part7	*part6	*part5	*part4	*part4	*part3	*part3	*part2	*part1	*part1
*staff15	*	*staff14	*staff13	*staff13	*staff12	*staff11	*staff10	*	*staff9	*staff8	*staff7	*staff6	*staff5	*staff4	*	*staff3	*	*staff2	*staff1	*
*Iempty	*	*Icello	*Iempty	*	*Iviola	*Ivioln	*Ivioln	*	*Ivioln	*Itimpa	*Itromt	*Itromp	*Ifagot	*Icor	*	*Iclars	*	*Ioboe	*Iflt	*
*I"Baſsi	*	*I"Violoncelli	*I"Szymon	*	*I"Viole	*I"Violino IIo..	*I"Violino Io.	*	*I"Violino Solo	*I"Timpani in d.a.	*I"Trombone	*I"Trombe in C	*I"Fagot	*I"Corni in B.	*	*I"Clarinetti in B.	*	*I"Oboe	*I"Flauto	*
*I'B.	*	*I'Vc.	*I'Sz.	*	*I'Va	*	*	*	*I'Vln.	*I'Timp.	*I'Trb	*I'Tr-ba	*I'Fag.	*I'C. in B.	*	*I'Cl. in B.	*	*I'Ob.	*I'Fl.	*
*clefF4	*	*clefF4	*clefG2	*	*clefC3	*clefG2	*clefG2	*	*clefG2	*clefF4	*clefF4	*clefG2	*clefF4	*clefG2	*	*clefG2	*	*clefG2	*clefG2	*
*ITrd0c0	*	*	*	*	*	*	*	*	*	*	*	*	*	*ITrd1c2	*	*ITrd1c2	*	*	*	*
*k[b-e-]	*	*k[b-e-]	*k[b-e-]	*	*k[b-e-]	*k[b-e-]	*k[b-e-]	*	*k[b-e-]	*k[b-e-]	*k[b-e-]	*k[b-e-]	*k[b-e-]	*k[b-e-]	*	*k[b-e-]	*	*k[b-e-]	*k[b-e-]	*
*B-:	*	*B-:	*B-:	*	*B-:	*B-:	*B-:	*	*B-:	*B-:	*B-:	*B-:	*B-:	*	*	*	*	*B-:	*B-:	*
*M3/4	*	*M3/4	*M3/4	*	*M3/4	*M3/4	*M3/4	*	*M3/4	*M3/4	*M3/4	*M3/4	*M3/4	*M3/4	*	*M3/4	*	*M3/4	*M3/4	*
=1	=1	=1	=1	=1	=1	=1	=1	=1	=1	=1	=1	=1	=1	=1	=1	=1	=1	=1	=1	=1
*	*	*	*	*	*	*	*	*	*	*	*	*	*	*	*	*^	*	*	*	*
!	!	!	!	!	!	!	!	!	!	!	!	!	!	!	!	!	!	!	!	!LO:TX:a:i:t=No 7. Quodlibet	!
!	!	!LO:TX:t=P::problem=takty 1-16 zapisane odnośnikiem do kontrabasu&colon; //	!	!	!	!	!	!	!	!	!	!	!	!	!	!	!	!	!	!LO:TX:a:B:t=Allegretto	!
2BB-/	.	2BB-/yy	2.r	.	8r	8r	8r	.	2.ryy	2.ryy	2.ryy	2.ryy	4F\	4b-/ 4B-/	.	8f/L	4d\	.	2.ryy	2.r	.
.	.	.	.	.	16F/LL	16B-/LL	16d/LL	.	.	.	.	.	.	.	.	16b-/L	.	.	.	.	.
.	.	.	.	.	16F/JJ	16B-/JJ	16d/JJ	.	.	.	.	.	.	.	.	16cc/JJ	.	.	.	.	.
*	*	*	*	*	*tremolo	*tremolo	*tremolo	*	*	*	*	*	*	*	*	*	*	*	*	*	*
.	.	.	.	.	8F/L	8B-/L	8d/L	.	.	.	.	.	4r	4r	.	4.dd/	4rB	.	.	.	.
.	.	.	.	.	8F/	8B-/	8d/	.	.	.	.	.	.	.	.	.	.	.	.	.	.
4r	.	4ryy	.	.	8F/	8B-/	8d/	.	.	.	.	.	4r	4r	.	.	4rB	.	.	.	.
.	.	.	.	.	8F/J	8B-/J	8d/J	.	.	.	.	.	.	.	.	8b-/	.	.	.	.	.
*	*	*	*	*	*Xtremolo	*Xtremolo	*Xtremolo	*	*	*	*	*	*	*	*	*	*	*	*	*	*
=2	=2	=2	=2	=2	=2	=2	=2	=2	=2	=2	=2	=2	=2	=2	=2	=2	=2	=2	=2	=2	=2
*	*	*	*	*	*rep	*rep	*rep	*	*	*	*	*	*	*	*	*	*	*	*	*	*
2BB-/	.	2BB-/yy	2.r	.	8r	8r	8r	.	2.ryy	2.ryy	2.ryy	2.ryy	4F\	4b-/ 4B-/	.	8f/L	4d\	.	2.ryy	2.r	.
.	.	.	.	.	16F/LL	16B-/LL	16d/LL	.	.	.	.	.	.	.	.	16dd/L	.	.	.	.	.
.	.	.	.	.	16F/JJ	16B-/JJ	16d/JJ	.	.	.	.	.	.	.	.	16ee-/JJ	.	.	.	.	.
*	*	*	*	*	*tremolo	*tremolo	*tremolo	*	*	*	*	*	*	*	*	*	*	*	*	*	*
.	.	.	.	.	8F/L	8B-/L	8d/L	.	.	.	.	.	4r	4r	.	4.ff/	4rB	.	.	.	.
.	.	.	.	.	8F/	8B-/	8d/	.	.	.	.	.	.	.	.	.	.	.	.	.	.
4r	.	4ryy	.	.	8F/	8B-/	8d/	.	.	.	.	.	4r	4r	.	.	4rB	.	.	.	.
.	.	.	.	.	8F/J	8B-/J	8d/J	.	.	.	.	.	.	.	.	8dd/	.	.	.	.	.
*	*	*	*	*	*Xtremolo	*Xtremolo	*Xtremolo	*	*	*	*	*	*	*	*	*	*	*	*	*	*
*	*	*	*	*	*Xrep	*Xrep	*Xrep	*	*	*	*	*	*	*	*	*	*	*	*	*	*
=3	=3	=3	=3	=3	=3	=3	=3	=3	=3	=3	=3	=3	=3	=3	=3	=3	=3	=3	=3	=3	=3
*	*	*	*	*	*	*	*	*	*	*	*	*	*	*^	*	*	*	*	*	*	*
*2\right	*	*2\right	*	*	*	*	*	*	*	*	*	*	*	*	*	*	*	*	*	*	*	*
2E-\	.	2E-\yy	2.r	.	8r	8r	8r	.	2.ryy	2.ryy	2.ryy	2.ryy	4E-\	4cc/	4cc\	.	8gg/	4G\	.	2.ryy	2.r	.
.	.	.	.	.	16G/LL	16c/LL	16e-/LL	.	.	.	.	.	.	.	.	.	4gg^/	.	.	.	.	.
.	.	.	.	.	16G/JJ	16c/JJ	16e-/JJ	.	.	.	.	.	.	.	.	.	.	.	.	.	.	.
*	*	*	*	*	*tremolo	*tremolo	*tremolo	*	*	*	*	*	*	*	*	*	*	*	*	*	*	*
.	.	.	.	.	8G/L	8c/L	8e-/L	.	.	.	.	.	4r	4r	4rByy	.	.	4rB	.	.	.	.
.	.	.	.	.	8G/	8c/	8e-/	.	.	.	.	.	.	.	.	.	16gg/LL	.	.	.	.	.
.	.	.	.	.	.	.	.	.	.	.	.	.	.	.	.	.	16ff/JJ	.	.	.	.	.
4r	.	4ryy	.	.	8G/	8c/	8e-/	.	.	.	.	.	4r	4r	4rByy	.	8ee-/L	4rB	.	.	.	.
.	.	.	.	.	8G/J	8c/J	8e-/J	.	.	.	.	.	.	.	.	.	8dd/J	.	.	.	.	.
*	*	*	*	*	*	*	*	*	*	*	*	*	*	*v	*v	*	*	*	*	*	*	*
!!LO:PB:g=original
=4	=4	=4	=4	=4	=4	=4	=4	=4	=4	=4	=4	=4	=4	=4	=4	=4	=4	=4	=4	=4	=4
.	.	.	.	.	.	.	.	.	.	.	.	.	.	.	.	(>16qqdd/	.	.	.	.	.
4F\	.	4F\yy	2.r	.	8A/L 8F/	8c/L	8e-/L	.	2.ryy	2.ryy	2.ryy	2.ryy	4A\	4cc/ 4F/	.	8cc/L)	2.rB	.	2.ryy	2.ryy	.
.	.	.	.	.	8A/ 8F/	8c/	8e-/	.	.	.	.	.	.	.	.	16cc/L	.	.	.	.	.
.	.	.	.	.	.	.	.	.	.	.	.	.	.	.	.	16b-/JJ	.	.	.	.	.
4r	.	4ryy	.	.	8A/ 8F/	8c/	8e-/	.	.	.	.	.	4r	4r	.	8a/L	.	.	.	.	.
.	.	.	.	.	8A/ 8F/	8c/	8e-/	.	.	.	.	.	.	.	.	8g/J	.	.	.	.	.
4r	.	4ryy	.	.	8A/ 8F/	8c/	8e-/	.	.	.	.	.	4r	4r	.	[<4f^/	.	.	.	.	.
.	.	.	.	.	8A/J 8F/	8c/J	8e-/J	.	.	.	.	.	.	.	.	.	.	.	.	.	.
*	*	*	*	*	*	*Xtremolo	*Xtremolo	*	*	*	*	*	*	*	*	*	*	*	*	*	*
=5	=5	=5	=5	=5	=5	=5	=5	=5	=5	=5	=5	=5	=5	=5	=5	=5	=5	=5	=5	=5	=5
4BB-/	.	4BB-/yy	2.r	.	8r	8r	8r	.	2.ryy	2.ryy	2.ryy	2.ryy	4d\	4b-/ 4B-/	.	8f/L]	2.rB	.	2.ryy	2.ryy	.
.	.	.	.	.	16F/LL	16B-/LL	16d/LL	.	.	.	.	.	.	.	.	16b-/L	.	.	.	.	.
.	.	.	.	.	16F/JJ	16B-/JJ	16d/JJ	.	.	.	.	.	.	.	.	16cc/JJ	.	.	.	.	.
*	*	*	*	*	*	*tremolo	*tremolo	*	*	*	*	*	*	*	*	*	*	*	*	*	*
4r	.	4ryy	.	.	8F/L	8B-/L	8d/L	.	.	.	.	.	4r	4r	.	4.dd^/	.	.	.	.	.
.	.	.	.	.	8F/	8B-/	8d/	.	.	.	.	.	.	.	.	.	.	.	.	.	.
4r	.	4ryy	.	.	8F/	8B-/	8d/	.	.	.	.	.	4r	4r	.	.	.	.	.	.	.
.	.	.	.	.	8F/J	8B-/J	8d/J	.	.	.	.	.	.	.	.	8b-/	.	.	.	.	.
*	*	*	*	*	*	*Xtremolo	*Xtremolo	*	*	*	*	*	*	*	*	*	*	*	*	*	*
=6	=6	=6	=6	=6	=6	=6	=6	=6	=6	=6	=6	=6	=6	=6	=6	=6	=6	=6	=6	=6	=6
*	*	*	*	*	*rep	*rep	*rep	*	*	*	*	*	*	*	*	*	*	*	*	*	*
4BB-/	.	4BB-/yy	2.r	.	8r	8r	8r	.	2.ryy	2.ryy	2.ryy	2.ryy	4d\	4b-/ 4B-/	.	8f/L	2.rB	.	2.ryy	2.ryy	.
.	.	.	.	.	16F/LL	16B-/LL	16d/LL	.	.	.	.	.	.	.	.	16dd/L	.	.	.	.	.
.	.	.	.	.	16F/JJ	16B-/JJ	16d/JJ	.	.	.	.	.	.	.	.	16ee-/JJ	.	.	.	.	.
*	*	*	*	*	*	*tremolo	*tremolo	*	*	*	*	*	*	*	*	*	*	*	*	*	*
4r	.	4ryy	.	.	8F/L	8B-/L	8d/L	.	.	.	.	.	4r	4r	.	4.ff^/	.	.	.	.	.
.	.	.	.	.	8F/	8B-/	8d/	.	.	.	.	.	.	.	.	.	.	.	.	.	.
4r	.	4ryy	.	.	8F/	8B-/	8d/	.	.	.	.	.	4r	4r	.	.	.	.	.	.	.
.	.	.	.	.	8F/J	8B-/J	8d/J	.	.	.	.	.	.	.	.	8dd/	.	.	.	.	.
*	*	*	*	*	*	*Xtremolo	*Xtremolo	*	*	*	*	*	*	*	*	*	*	*	*	*	*
*	*	*	*	*	*Xrep	*Xrep	*Xrep	*	*	*	*	*	*	*	*	*	*	*	*	*	*
!!LO:PB:g=original
=7	=7	=7	=7	=7	=7	=7	=7	=7	=7	=7	=7	=7	=7	=7	=7	=7	=7	=7	=7	=7	=7
*	*	*	*	*	*	*	*	*	*	*	*	*	*	*^	*	*	*	*	*	*	*
4E-\	.	4E-\yy	2.r	.	8r	8r	8r	.	2.ryy	2.ryy	2.ryy	2.ryy	4G\	4cc/	4cc\	.	8.gg/L	2.rB	.	2.ryy	2.ryy	.
.	.	.	.	.	8G/	8c/	8e-/	.	.	.	.	.	.	.	.	.	.	.	.	.	.	.
.	.	.	.	.	.	.	.	.	.	.	.	.	.	.	.	.	16ff#X/Jk	.	.	.	.	.
*	*	*	*	*	*	*tremolo	*tremolo	*	*	*	*	*	*	*	*	*	*	*	*	*	*	*
4r	.	4ryy	.	.	8G/L	8c/L	8e-/L	.	.	.	.	.	4r	4r	4rByy	.	16aa/LL	.	.	.	.	.
.	.	.	.	.	.	.	.	.	.	.	.	.	.	.	.	.	16gg/	.	.	.	.	.
.	.	.	.	.	8G/	8c/	8e-/	.	.	.	.	.	.	.	.	.	16dd/	.	.	.	.	.
.	.	.	.	.	.	.	.	.	.	.	.	.	.	.	.	.	16ff/JJ	.	.	.	.	.
4r	.	4ryy	.	.	8G/	8c/	8e-/	.	.	.	.	.	4r	4r	4rByy	.	16ee-/LL	.	.	.	.	.
.	.	.	.	.	.	.	.	.	.	.	.	.	.	.	.	.	16g/	.	.	.	.	.
.	.	.	.	.	8G/J	8c/J	8e-/J	.	.	.	.	.	.	.	.	.	16dd/	.	.	.	.	.
.	.	.	.	.	.	.	.	.	.	.	.	.	.	.	.	.	16cc/JJ	.	.	.	.	.
*	*	*	*	*	*	*	*	*	*	*	*	*	*	*v	*v	*	*	*	*	*	*	*
*	*	*	*	*	*	*	*Xtremolo	*	*	*	*	*	*	*	*	*	*	*	*	*	*
=8	=8	=8	=8	=8	=8	=8	=8	=8	=8	=8	=8	=8	=8	=8	=8	=8	=8	=8	=8	=8	=8
.	.	.	.	.	.	.	.	.	.	.	.	.	.	.	.	(16qqb-/	.	.	.	.	.
4F\	.	4F\yy	2.r	.	8A/L 8F/	8e-/L 8c/	8e-/L	.	2.ryy	2.ryy	2.ryy	2.ryy	4c\	4f/ 4F/	.	16a/LL)	4e-\	.	2.ryy	2.ryy	.
.	.	.	.	.	.	.	.	.	.	.	.	.	.	.	.	16g'/	.	.	.	.	.
.	.	.	.	.	8A/ 8F/	8e-/ 8c/	8e-/	.	.	.	.	.	.	.	.	16f'/	.	.	.	.	.
.	.	.	.	.	.	.	.	.	.	.	.	.	.	.	.	16g'/JJ	.	.	.	.	.
4r	.	4ryy	.	.	8A/ 8F/	8e-/ 8c/	8e-/J	.	.	.	.	.	4r	4r	.	16a'/LL	4rB	.	.	.	.
.	.	.	.	.	.	.	.	.	.	.	.	.	.	.	.	16b-'/	.	.	.	.	.
.	.	.	.	.	8A/ 8F/	8e-/ 8c/	8r	.	.	.	.	.	.	.	.	16cc'/	.	.	.	.	.
.	.	.	.	.	.	.	.	.	.	.	.	.	.	.	.	16dd'/JJ	.	.	.	.	.
4r	.	4ryy	.	.	8A/ 8F/	8e-/ 8c/	4r	.	.	.	.	.	4r	4r	.	16ee-'/LL	4rB	.	.	.	.
.	.	.	.	.	.	.	.	.	.	.	.	.	.	.	.	16ff'/	.	.	.	.	.
.	.	.	.	.	8A/J 8F/	8e-/J 8c/	.	.	.	.	.	.	.	.	.	16gg'/	.	.	.	.	.
.	.	.	.	.	.	.	.	.	.	.	.	.	.	.	.	16aa'/JJ	.	.	.	.	.
*	*	*	*	*	*Xtremolo	*Xtremolo	*	*	*	*	*	*	*	*	*	*	*	*	*	*	*
=9	=9	=9	=9	=9	=9	=9	=9	=9	=9	=9	=9	=9	=9	=9	=9	=9	=9	=9	=9	=9	=9
8BB-/L	.	8BB-/Lyy	8.b-/	Gdy	8B-/L	8d/L 8B-/	8b-/L	.	2.ryy	2.ryy	2.ryy	2.ryy	4B-\	4f/ 4B-/	.	4bb-/	4d\	.	2.ryy	2.ryy	.
16BB-/L	.	16BB-/Lyy	.	.	16F/L	16d/L	16b-/L	.	.	.	.	.	.	.	.	.	.	.	.	.	.
16BB-/JJ	.	16BB-/JJyy	16b-/	prze-	16F/JJ	16d/JJ	16b-/JJ	.	.	.	.	.	.	.	.	.	.	.	.	.	.
8BB-/L	.	8BB-/Lyy	8b-/	-cho-	8F/L	8d/L	8b-/L	.	.	.	.	.	4r	4r	.	4r	4rB	.	.	.	.
8BB-/	.	8BB-/yy	8f/	-dzu	8F/	8d/	8f/	.	.	.	.	.	.	.	.	.	.	.	.	.	.
.	.	.	8qa/	.	.	.	(8qa/	.	.	.	.	.	.	.	.	.	.	.	.	.	.
8AA/	.	8AA/yy	8g/	kto	8c/	8e-/	8g/)	.	.	.	.	.	4r	4r	.	4r	4rB	.	.	.	.
8AA/J	.	8AA/Jyy	8f/	z mło-	8c/J	8e-/J	8f/J	.	.	.	.	.	.	.	.	.	.	.	.	.	.
*	*	*	*	*	*	*	*	*	*	*	*	*	*	*	*	*v	*v	*	*	*	*
=10	=10	=10	=10	=10	=10	=10	=10	=10	=10	=10	=10	=10	=10	=10	=10	=10	=10	=10	=10	=10
4BB-/	.	4BB-/yy	8.b-\L	-dzie-	4F/	4d/	8.b-\L	.	2.ryy	2.ryy	2.ryy	2.ryy	2.r	2.r	.	2.r	.	2.ryy	2.ryy	.
.	.	.	16cc\Jk	.	.	.	16cc\Jk	.	.	.	.	.	.	.	.	.	.	.	.	.
4BB-/	.	4BB-/yy	4dd\	-ży	4F/	4d/	4dd\	.	.	.	.	.	.	.	.	.	.	.	.	.
4r	.	4ryy	4r	.	4r	4r	4r	.	.	.	.	.	.	.	.	.	.	.	.	.
=11	=11	=11	=11	=11	=11	=11	=11	=11	=11	=11	=11	=11	=11	=11	=11	=11	=11	=11	=11	=11
*tremolo	*	*tremolo	*	*	*tremolo	*	*	*	*	*	*	*	*	*	*	*	*	*	*	*
8C/L	.	8C/Lyy	16cc\LL	Co	8A/L	8e-/L	16cc\LL	.	2.ryy	2.ryy	2.ryy	2.ryy	2.r	2.r	.	2.r	.	2.ryy	2.ryy	.
.	.	.	16ff\JJ	.	.	.	16ff\	.	.	.	.	.	.	.	.	.	.	.	.	.
8C/	.	8C/yy	16g/LL	na	8A/	8e-/	16g\	.	.	.	.	.	.	.	.	.	.	.	.	.
.	.	.	16a/JJ	.	.	.	16a\JJ	.	.	.	.	.	.	.	.	.	.	.	.	.
8C/	.	8C/yy	16dd\LL	pię-	8A/	8e-/	(16dd/LL	.	.	.	.	.	.	.	.	.	.	.	.	.
.	.	.	16cc\JJ	.	.	.	16cc/	.	.	.	.	.	.	.	.	.	.	.	.	.
8C/	.	8C/yy	16f/LL	-kny	8A/J	8c/J	16f'/)	.	.	.	.	.	.	.	.	.	.	.	.	.
.	.	.	16a/JJ	.	.	.	16a'/JJ	.	.	.	.	.	.	.	.	.	.	.	.	.
*	*	*	*	*	*Xtremolo	*	*	*	*	*	*	*	*	*	*	*	*	*	*	*
8C/	.	8C/yy	8g/	cia-	8B-/L	8en/L	8g/L	.	.	.	.	.	.	.	.	.	.	.	.	.
8C/J	.	8C/Jyy	8cc\	-ła	8B-/J	8e/J	8cc/J	.	.	.	.	.	.	.	.	.	.	.	.	.
*Xtremolo	*	*Xtremolo	*	*	*	*	*	*	*	*	*	*	*	*	*	*	*	*	*	*
!!LO:PB:g=original
=12	=12	=12	=12	=12	=12	=12	=12	=12	=12	=12	=12	=12	=12	=12	=12	=12	=12	=12	=12	=12
4F\	.	4F\yy	2f/	skład	4A/	4c/	8f/	.	2.ryy	2.ryy	2.ryy	2.ryy	2.r	2.r	.	2.r	.	2.r	2.r	.
.	.	.	.	.	.	.	8f/L	.	.	.	.	.	.	.	.	.	.	.	.	.
4r	.	4ryy	.	.	4r	4r	8f/	.	.	.	.	.	.	.	.	.	.	.	.	.
.	.	.	.	.	.	.	8f/	.	.	.	.	.	.	.	.	.	.	.	.	.
4r	.	4ryy	4r	.	4r	4r	8f/	.	.	.	.	.	.	.	.	.	.	.	.	.
.	.	.	.	.	.	.	8f/J	.	.	.	.	.	.	.	.	.	.	.	.	.
=13	=13	=13	=13	=13	=13	=13	=13	=13	=13	=13	=13	=13	=13	=13	=13	=13	=13	=13	=13	=13
*	*	*	*2\right	*	*	*	*	*	*	*	*	*	*	*	*	*	*	*2\right	*2\right	*
*	*	*	*	*	*tremolo	*tremolo	*tremolo	*	*	*	*	*	*	*	*	*	*	*	*	*
!	!	!	!	!	!	!	!	!	!	!	!	!	!	!	!	!	!	!	!	!LO:DY:rj
2FF/	.	2FF/yy	2cc\	Blond	8A/L	8e-X/L	8f/L	.	2.ryy	2.ryy	2.ryy	2.ryy	2.r	2.r	.	2.r	.	(2cc\	(2ccc\	p
.	.	.	.	.	8A/	8e-/	8f/	.	.	.	.	.	.	.	.	.	.	.	.	.
.	.	.	.	.	8A/	8e-/	8f/	.	.	.	.	.	.	.	.	.	.	.	.	.
.	.	.	.	.	8A/J	8e-/J	8f/	.	.	.	.	.	.	.	.	.	.	.	.	.
*	*	*	*	*	*Xtremolo	*Xtremolo	*	*	*	*	*	*	*	*	*	*	*	*	*	*
4r	.	4ryy	(8bn\L	czy	8G#X/L	8d/L	8f/	.	.	.	.	.	.	.	.	.	.	8bn\L	8bbn\L	.
.	.	.	16cc\L	.	8G#/J	8d/J	8f/J	.	.	.	.	.	.	.	.	.	.	16cc\L	16ccc\L	.
.	.	.	16dd\JJ)	.	.	.	.	.	.	.	.	.	.	.	.	.	.	16dd\JJ)	16ddd\JJ)	.
=14	=14	=14	=14	=14	=14	=14	=14	=14	=14	=14	=14	=14	=14	=14	=14	=14	=14	=14	=14	=14
*	*	*	*	*	*tremolo	*tremolo	*	*	*	*	*	*	*	*	*	*	*	*	*	*
2FF/	.	2FF/yy	2cc\	bru-	8A/L	8e-/L	8f/L	.	2.ryy	2.ryy	2.ryy	2.ryy	2.r	2.r	.	2.r	.	2cc\	2ccc\	.
.	.	.	.	.	8A/	8e-/	8f/	.	.	.	.	.	.	.	.	.	.	.	.	.
.	.	.	.	.	8A/	8e-/	8f/	.	.	.	.	.	.	.	.	.	.	.	.	.
.	.	.	.	.	8A/	8e-/	8f/	.	.	.	.	.	.	.	.	.	.	.	.	.
4r	.	4ryy	4f/	-net,	8A/	8e-/	8f/	.	.	.	.	.	.	.	.	.	.	4f/	4ff\	.
.	.	.	.	.	8A/J	8e-/J	8f/J	.	.	.	.	.	.	.	.	.	.	.	.	.
=15	=15	=15	=15	=15	=15	=15	=15	=15	=15	=15	=15	=15	=15	=15	=15	=15	=15	=15	=15	=15
*	*	*	*	*	*	*rep	*rep	*	*	*	*	*	*	*	*	*	*	*	*	*
2FF/	.	2FF/yy	2ee-\	by-	8c/L 8A/	8e-/L	8f/L	.	2.ryy	2.ryy	2.ryy	2.ryy	2.r	2.r	.	2.r	.	2ee-\	2eee-\	.
.	.	.	.	.	8c/ 8A/	8e-/	8f/	.	.	.	.	.	.	.	.	.	.	.	.	.
.	.	.	.	.	8c/ 8A/	8e-/	8f/	.	.	.	.	.	.	.	.	.	.	.	.	.
.	.	.	.	.	8c/ 8A/	8e-/	8f/	.	.	.	.	.	.	.	.	.	.	.	.	.
4r	.	4ryy	(16dd\LL	-le	8c/ 8A/	8e-/	8f/	.	.	.	.	.	.	.	.	.	.	(16dd\LL	(16ddd\LL	.
.	.	.	16cc\	.	.	.	.	.	.	.	.	.	.	.	.	.	.	16cc\	16ccc\	.
.	.	.	16b-\	.	8c/J 8A/	8e-/J	8f/J	.	.	.	.	.	.	.	.	.	.	16b-\	16bb-\	.
.	.	.	16a\JJ)	.	.	.	.	.	.	.	.	.	.	.	.	.	.	16a\JJ)	16aa\JJ)	.
*	*	*	*	*	*	*Xrep	*Xrep	*	*	*	*	*	*	*	*	*	*	*	*	*
=16	=16	=16	=16	=16	=16	=16	=16	=16	=16	=16	=16	=16	=16	=16	=16	=16	=16	=16	=16	=16
*	*	*	*	*	*rep	*rep	*rep	*	*	*	*	*	*	*	*	*	*	*	*	*
2FF/	.	2FF/yy	4g/	świe-	8c/L 8A/	8e-/L	8f/L	.	2.ryy	2.ryy	2.ryy	2.ryy	2.r	2.r	.	2.r	.	(4g/	(4gg\	.
.	.	.	.	.	8c/ 8A/	8e-/	8f/	.	.	.	.	.	.	.	.	.	.	.	.	.
.	.	.	4f/	-zy	8c/ 8A/	8e-/	8f/	.	.	.	.	.	.	.	.	.	.	4f/)	4ff\)	.
.	.	.	.	.	8c/ 8A/	8e-/	8f/	.	.	.	.	.	.	.	.	.	.	.	.	.
4r	.	4ryy	4r	.	8c/ 8A/	8e-/	8f/	.	.	.	.	.	.	.	.	.	.	4r	4r	.
.	.	.	.	.	8c/J 8A/	8e-/J	8f/J	.	.	.	.	.	.	.	.	.	.	.	.	.
*	*	*	*	*	*Xrep	*Xrep	*Xrep	*	*	*	*	*	*	*	*	*	*	*	*	*
!!LO:PB:g=original
=17	=17	=17	=17	=17	=17	=17	=17	=17	=17	=17	=17	=17	=17	=17	=17	=17	=17	=17	=17	=17
4BB-/	.	4BB-/	8dd\	każ-	4B-/	4d/	4f/	.	2.ryy	2.ryy	2.ryy	2.ryy	2.r	2.r	.	2.r	.	2.r	2.r	.
.	.	.	(16dd\LL	-dy	.	.	.	.	.	.	.	.	.	.	.	.	.	.	.	.
.	.	.	16cc\JJ)	.	.	.	.	.	.	.	.	.	.	.	.	.	.	.	.	.
4r	.	4r	8b-/	za	4r	4r	4r	.	.	.	.	.	.	.	.	.	.	.	.	.
.	.	.	8a/	nim	.	.	.	.	.	.	.	.	.	.	.	.	.	.	.	.
4r	.	4r	8g/	spoj-	4r	4r	4r	.	.	.	.	.	.	.	.	.	.	.	.	.
.	.	.	8f/	-rzeć	.	.	.	.	.	.	.	.	.	.	.	.	.	.	.	.
=18	=18	=18	=18	=18	=18	=18	=18	=18	=18	=18	=18	=18	=18	=18	=18	=18	=18	=18	=18	=18
2.r	.	8r	2f/	rad	8F/L	8c/L	8e-/L	.	2.ryy	2.ryy	2.ryy	2.ryy	8r	2.ryy	.	2.ryy	.	2.ryy	2.ryy	.
.	.	16AA'/LL	.	.	8F/	8c/	8e-/	.	.	.	.	.	16AA'/LL	.	.	.	.	.	.	.
.	.	16AA'/JJ	.	.	.	.	.	.	.	.	.	.	16AA'/JJ	.	.	.	.	.	.	.
.	.	8C'/L	.	.	8F/	8c/	8e-/	.	.	.	.	.	8C'/L	.	.	.	.	.	.	.
.	.	16AA'/L	.	.	8F/J	8c/	8e-/	.	.	.	.	.	16AA'/L	.	.	.	.	.	.	.
.	.	16AA'/JJ	.	.	.	.	.	.	.	.	.	.	16AA'/JJ	.	.	.	.	.	.	.
*	*	*	*	*	*Xtremolo	*	*	*	*	*	*	*	*	*	*	*	*	*	*	*
.	.	(16G^/LL	4r	.	8c/L	8c/	8e-/	.	.	.	.	.	(16G^/LL	.	.	.	.	.	.	.
.	.	16F/J)	.	.	.	.	.	.	.	.	.	.	16F/J)	.	.	.	.	.	.	.
.	.	8AA'/J	.	.	8c/J	8c/J	8e-/J	.	.	.	.	.	8AA'/J	.	.	.	.	.	.	.
*	*	*	*	*	*	*Xtremolo	*Xtremolo	*	*	*	*	*	*	*	*	*	*	*	*	*
=19	=19	=19	=19	=19	=19	=19	=19	=19	=19	=19	=19	=19	=19	=19	=19	=19	=19	=19	=19	=19
4BB-/	.	4BB-/	8dd\	Każ-	4F/	4B-/	4d/	.	2.ryy	2.ryy	2.ryy	2.ryy	4BB-/	2.ryy	.	2.ryy	.	2.ryy	2.ryy	.
.	.	.	16dd\LL	-dy	.	.	.	.	.	.	.	.	.	.	.	.	.	.	.	.
.	.	.	16cc\JJ	.	.	.	.	.	.	.	.	.	.	.	.	.	.	.	.	.
4r	.	4r	8b-/	za-	4r	4r	4r	.	.	.	.	.	4r	.	.	.	.	.	.	.
.	.	.	8a/	-nim	.	.	.	.	.	.	.	.	.	.	.	.	.	.	.	.
4r	.	4r	8g/	spoj-	4r	4r	4r	.	.	.	.	.	4r	.	.	.	.	.	.	.
.	.	.	8f/	-rzeć	.	.	.	.	.	.	.	.	.	.	.	.	.	.	.	.
=20	=20	=20	=20	=20	=20	=20	=20	=20	=20	=20	=20	=20	=20	=20	=20	=20	=20	=20	=20	=20
!	!	!LO:TX:t=P::problem=takty 20-35 zapisane odnośnikiem do kontrabasu&colon; //	!	!	!	!	!	!	!	!	!	!	!	!	!	!	!	!	!	!
8GG/	.	8GG/yy	8en/	rad	8B-/	8en/	8en/	.	2.ryy	2.ryy	2.ryy	2.ryy	8GG/	2.ryy	.	2.ryy	.	2.ryy	2.ryy	.
8r	.	8ryy	8r	.	8r	8r	8r	.	.	.	.	.	8r	.	.	.	.	.	.	.
2AA^/	.	2AA^/yy	(4cc\	Ah!	(4F/	2e-X^/	(4cc^<\	.	.	.	.	.	2AA^/	.	.	.	.	.	.	.
.	.	.	4f/)	.	4c/)	.	4f/)	.	.	.	.	.	.	.	.	.	.	.	.	.
!!LO:PB:g=original
=21	=21	=21	=21	=21	=21	=21	=21	=21	=21	=21	=21	=21	=21	=21	=21	=21	=21	=21	=21	=21
[8BB-/L	.	[8BB-/Lyy	4.dd\	każ-	8B-/L	8d/L	4.dd\	.	2.ryy	2.ryy	2.ryy	2.ryy	8BB-/	2.r	.	2.r	.	2.r	2.r	.
16BB-/L]	.	16BB-/L]yy	.	.	16B-/L	16d/L	.	.	.	.	.	.	8r	.	.	.	.	.	.	.
16BB-/JJ	.	16BB-/JJyy	.	.	16B-/JJ	16d/JJ	.	.	.	.	.	.	.	.	.	.	.	.	.	.
*tremolo	*	*tremolo	*	*	*	*	*	*	*	*	*	*	*	*	*	*	*	*	*	*
8BB-/L	.	8BB-/Lyy	.	.	8B-/L	8d/L	.	.	.	.	.	.	4r	.	.	.	.	.	.	.
8BB-/J	.	8BB-/Jyy	16cc\LL	-dy	8B-/J	8d/J	16cc\LL	.	.	.	.	.	.	.	.	.	.	.	.	.
.	.	.	16dd\JJ	.	.	.	16dd\JJ	.	.	.	.	.	.	.	.	.	.	.	.	.
8E-\L	.	8E-\Lyy	8ee-\	za-	8G/L	8c/L	8ee-X\L	.	.	.	.	.	4r	.	.	.	.	.	.	.
8E-\J	.	8E-\Jyy	(16dd\LL	-nim	8G/J	8e-/J	16dd\L	.	.	.	.	.	.	.	.	.	.	.	.	.
.	.	.	16cc\JJ)	.	.	.	16cc\JJ	.	.	.	.	.	.	.	.	.	.	.	.	.
*Xtremolo	*	*Xtremolo	*	*	*	*	*	*	*	*	*	*	*	*	*	*	*	*	*	*
=22	=22	=22	=22	=22	=22	=22	=22	=22	=22	=22	=22	=22	=22	=22	=22	=22	=22	=22	=22	=22
*	*	*	*	*	*tremolo	*tremolo	*	*	*	*	*	*	*	*	*	*	*	*	*	*
2F\	.	2F\yy	2f/	spoj-	8F/L	8d/L	2f/	.	2.ryy	2.ryy	2.ryy	2.ryy	2.r	2.r	.	2.r	.	2.r	2.r	.
.	.	.	.	.	8F/	8d/	.	.	.	.	.	.	.	.	.	.	.	.	.	.
.	.	.	.	.	8F/	8d/	.	.	.	.	.	.	.	.	.	.	.	.	.	.
.	.	.	.	.	8F/J	8d/J	.	.	.	.	.	.	.	.	.	.	.	.	.	.
*	*	*	*	*	*Xtremolo	*Xtremolo	*	*	*	*	*	*	*	*	*	*	*	*	*	*
4FF/	.	4FF/yy	(4at/	-rzeć	8c\L	8e-/L	(4a^t/	.	.	.	.	.	.	.	.	.	.	.	.	.
.	.	.	.	.	8c\J	8e-/J	.	.	.	.	.	.	.	.	.	.	.	.	.	.
.	.	.	16qqg/LL	.	.	.	16qqg/LL	.	.	.	.	.	.	.	.	.	.	.	.	.
.	.	.	16qqa/JJ)	.	.	.	16qqa/JJ)	.	.	.	.	.	.	.	.	.	.	.	.	.
=23	=23	=23	=23	=23	=23	=23	=23	=23	=23	=23	=23	=23	=23	=23	=23	=23	=23	=23	=23	=23
*	*	*	*	*	*	*	*	*	*	*	*	*	*	*	*	*^	*	*	*	*
4BB-/	.	4BB-/yy	2b-\	rad	8B-/	8d/	8b-/	.	2.ryy	2.ryy	2.ryy	2.ryy	4d\	4b-/ 4B-/	.	8f/L	4d\	.	8f/L	8ff'\L	.
.	.	.	.	.	16F/LL	16B-/LL	16d/LL	.	.	.	.	.	.	.	.	16b-/L	.	.	16b-/L	16bb-'\L	.
.	.	.	.	.	16F/JJ	16B-/JJ	16d/JJ	.	.	.	.	.	.	.	.	16cc/JJ	.	.	16cc/JJ	16ccc'\JJ	.
*	*	*	*	*	*tremolo	*tremolo	*tremolo	*	*	*	*	*	*	*	*	*	*	*	*	*	*
4r	.	4ryy	.	.	8F/L	8B-/L	8d/L	.	.	.	.	.	4r	4r	.	4.dd/	4rB	.	4.dd\	4.ddd\	.
.	.	.	.	.	8F/	8B-/	8d/	.	.	.	.	.	.	.	.	.	.	.	.	.	.
4r	.	4ryy	4r	.	8F/	8B-/	8d/	.	.	.	.	.	4r	4r	.	.	4rB	.	.	.	.
.	.	.	.	.	8F/J	8B-/J	8d/J	.	.	.	.	.	.	.	.	8b-/	.	.	8b-\	8bb-\	.
*	*	*	*	*	*Xtremolo	*Xtremolo	*Xtremolo	*	*	*	*	*	*	*	*	*	*	*	*	*	*
=24	=24	=24	=24	=24	=24	=24	=24	=24	=24	=24	=24	=24	=24	=24	=24	=24	=24	=24	=24	=24	=24
!	!	!	!	!	!	!	!	!	!	!	!	!	!	!	!	!	!	!	!LO:TX:a:t=8va. Fl.	!	!
4BB-/	.	4BB-/yy	2.r	.	8r	8r	8r	.	2.ryy	2.ryy	2.ryy	2.ryy	4d\	4b-/ 4B-/	.	8f/L	4d\	.	8f\Lyy	8ff\L	.
.	.	.	.	.	16F/LL	16B-/LL	16d/LL	.	.	.	.	.	.	.	.	16dd/L	.	.	16dd\Lyy	16ddd\L	.
.	.	.	.	.	16F/JJ	16B-/JJ	16d/JJ	.	.	.	.	.	.	.	.	16ee-/JJ	.	.	16ee-\JJyy	16eee-\JJ	.
*	*	*	*	*	*tremolo	*tremolo	*tremolo	*	*	*	*	*	*	*	*	*	*	*	*	*	*
4r	.	4ryy	.	.	8F/L	8B-/L	8d/L	.	.	.	.	.	4r	4r	.	4.ff/	4rB	.	4.ff\yy	4.fff\	.
.	.	.	.	.	8F/	8B-/	8d/	.	.	.	.	.	.	.	.	.	.	.	.	.	.
4r	.	4ryy	.	.	8F/	8B-/	8d/	.	.	.	.	.	4r	4r	.	.	4rB	.	.	.	.
.	.	.	.	.	8F/J	8B-/J	8d/J	.	.	.	.	.	.	.	.	8dd/	.	.	8dd\yy	8ddd\	.
*	*	*	*	*	*	*Xtremolo	*Xtremolo	*	*	*	*	*	*	*	*	*	*	*	*	*	*
=25	=25	=25	=25	=25	=25	=25	=25	=25	=25	=25	=25	=25	=25	=25	=25	=25	=25	=25	=25	=25	=25
*	*	*	*	*	*	*rep	*	*	*	*	*	*	*	*	*	*	*	*	*	*	*
2.BB-^>/	.	2.BB-^>/yy	2.r	.	8r	8r	8r	.	2.ryy	2.ryy	2.ryy	2.ryy	2.r	2.r	.	8aa-X/	2.rB	.	8aa-X\yy	8aaa-X\	.
.	.	.	.	.	8d\ 8A-X\	16B-/LL	8f/	.	.	.	.	.	.	.	.	4aa-/	.	.	4aa-^<\yy	4aaa-^<\	.
.	.	.	.	.	.	16B-/JJ	.	.	.	.	.	.	.	.	.	.	.	.	.	.	.
*	*	*	*	*	*2\right	*tremolo	*tremolo	*	*	*	*	*	*	*	*	*	*	*	*	*	*
.	.	.	.	.	8d\L 8A-\	8B-/L	8f/L	.	.	.	.	.	.	.	.	.	.	.	.	.	.
.	.	.	.	.	8d\ 8A-\	8B-/	8f/	.	.	.	.	.	.	.	.	16aa-/LL	.	.	16aa-\LLyy	16aaa-\LL	.
.	.	.	.	.	.	.	.	.	.	.	.	.	.	.	.	16gg/JJ	.	.	16gg\JJyy	16ggg\JJ	.
.	.	.	.	.	8d\ 8A-\	8B-/	8f/	.	.	.	.	.	.	.	.	8ff/L	.	.	8ff\Lyy	8fff\L	.
.	.	.	.	.	8d\J 8A-\	8B-/J	8f/J	.	.	.	.	.	.	.	.	8ee-/J	.	.	8ee-\Jyy	8eee-\J	.
*	*	*	*	*	*	*Xtremolo	*Xtremolo	*	*	*	*	*	*	*	*	*	*	*	*	*	*
*	*	*	*	*	*	*Xrep	*	*	*	*	*	*	*	*	*	*	*	*	*	*	*
!!LO:PB:g=original
=26	=26	=26	=26	=26	=26	=26	=26	=26	=26	=26	=26	=26	=26	=26	=26	=26	=26	=26	=26	=26	=26
*	*	*	*	*	*	*	*	*	*	*	*	*	*2\right	*	*	*	*	*	*	*	*
.	.	.	.	.	.	.	.	.	.	.	.	.	.	.	.	8qee-/	.	.	(8qee-/yy	(8qeee-/	.
2.BB-X/	.	2.BB-X/yy	2.r	.	8r	8r	8r	.	2.ryy	2.ryy	2.ryy	2.ryy	(2.A-X\	(>2.f/ 2.B-/	.	8dd/L	(2.d\	.	8dd\L)yy	8ddd\L)	.
.	.	.	.	.	8A-X/	8d/	8f/	.	.	.	.	.	.	.	.	16dd/L	.	.	16dd\Lyy	16ddd\L	.
.	.	.	.	.	.	.	.	.	.	.	.	.	.	.	.	16cc/JJ	.	.	16cc\JJyy	16ccc\JJ	.
*	*	*	*	*	*	*tremolo	*	*	*	*	*	*	*	*	*	*	*	*	*	*	*
.	.	.	.	.	8A-/L	8d/L	8f/L	.	.	.	.	.	.	.	.	8b-/L	.	.	8b-\Lyy	8bb-\L	.
.	.	.	.	.	8A-/	8d/	8f/	.	.	.	.	.	.	.	.	8a-X/J	.	.	8a-X\Jyy	8aa-X\J	.
.	.	.	.	.	.	.	.	.	.	.	.	.	.	.	.	16qqb-/LL	.	.	16qqb-/LLyy	16qqbb-/LL	.
.	.	.	.	.	.	.	.	.	.	.	.	.	.	.	.	16qqcc/JJ	.	.	16qqcc/JJyy	16qqccc/JJ	.
.	.	.	.	.	8A-/	8d/	8f/	.	.	.	.	.	.	.	.	4b-T/	.	.	4b-T\yy	4bb-T\	.
.	.	.	.	.	8A-/J	8d/J	8b-/J	.	.	.	.	.	.	.	.	.	.	.	.	.	.
*	*	*	*	*	*Xtremolo	*	*	*	*	*	*	*	*	*	*	*	*	*	*	*	*
=27	=27	=27	=27	=27	=27	=27	=27	=27	=27	=27	=27	=27	=27	=27	=27	=27	=27	=27	=27	=27	=27
4E-\	.	4E-\yy	2b-\	Wpraw-	[2.G/	8r	2b-/	.	2.ryy	2.ryy	2.ryy	2.ryy	4G\)	4b-/ 4B-/)	.	2.r	4e-\)	.	2.r	2.r	.
.	.	.	.	.	.	8e-/ 8B-/	.	.	.	.	.	.	.	.	.	.	.	.	.	.	.
4r	.	4ryy	.	.	.	8e-/L 8B-/	.	.	.	.	.	.	4r	4r	.	.	4rB	.	.	.	.
.	.	.	.	.	.	8e-/ 8B-/	.	.	.	.	.	.	.	.	.	.	.	.	.	.	.
4r	.	4ryy	(8g/L	-dzie	.	8e-/ 8B-/	(8g/L	.	.	.	.	.	4r	4r	.	.	4rB	.	.	.	.
.	.	.	8e-/J)	.	.	8e-/J 8B-/	8e-/J)	.	.	.	.	.	.	.	.	.	.	.	.	.	.
*	*	*	*	*	*	*	*	*	*	*	*	*	*	*	*	*v	*v	*	*	*	*
=28	=28	=28	=28	=28	=28	=28	=28	=28	=28	=28	=28	=28	=28	=28	=28	=28	=28	=28	=28	=28
*	*	*	*	*	*	*rep	*	*	*	*	*	*	*	*	*	*	*	*	*	*
4E-\	.	4E-\yy	2B-/	pan-	2.G/]	8r	2B-/	.	2.ryy	2.ryy	2.ryy	2.ryy	2.r	2.r	.	2.r	.	2.r	2.r	.
.	.	.	.	.	.	8e-/ 8B-/	.	.	.	.	.	.	.	.	.	.	.	.	.	.
4r	.	4ryy	.	.	.	8e-/L 8B-/	.	.	.	.	.	.	.	.	.	.	.	.	.	.
.	.	.	.	.	.	8e-/ 8B-/	.	.	.	.	.	.	.	.	.	.	.	.	.	.
4r	.	4ryy	8e-/L	-na	.	8e-/ 8B-/	(8e-/L	.	.	.	.	.	.	.	.	.	.	.	.	.
.	.	.	8g/J	.	.	8e-/J 8B-/	8g/J)	.	.	.	.	.	.	.	.	.	.	.	.	.
*	*	*	*	*	*	*Xrep	*	*	*	*	*	*	*	*	*	*	*	*	*	*
=29	=29	=29	=29	=29	=29	=29	=29	=29	=29	=29	=29	=29	=29	=29	=29	=29	=29	=29	=29	=29
*	*	*	*	*	*	*rep	*	*	*	*	*	*	*	*	*	*	*	*	*	*
4E-\	.	4E-\yy	2b-\	gdy	2.G/	8r	2b-/	.	2.ryy	2.ryy	2.ryy	2.ryy	2.r	2.r	.	2.r	.	2.r	2.r	.
.	.	.	.	.	.	8e-/ 8B-/	.	.	.	.	.	.	.	.	.	.	.	.	.	.
4r	.	4ryy	.	.	.	8e-/L 8B-/	.	.	.	.	.	.	.	.	.	.	.	.	.	.
.	.	.	.	.	.	8e-/ 8B-/	.	.	.	.	.	.	.	.	.	.	.	.	.	.
4r	.	4ryy	8g/L	po-	.	8e-/ 8B-/	(8g/L	.	.	.	.	.	.	.	.	.	.	.	.	.
.	.	.	8e-/J	.	.	8e-/J 8B-/	8e-/J)	.	.	.	.	.	.	.	.	.	.	.	.	.
*	*	*	*	*	*	*Xrep	*	*	*	*	*	*	*	*	*	*	*	*	*	*
=30	=30	=30	=30	=30	=30	=30	=30	=30	=30	=30	=30	=30	=30	=30	=30	=30	=30	=30	=30	=30
4BB-/	.	4BB-/yy	4cc\	-boż-	2.A-X/	8r	4cc\	.	2.ryy	2.ryy	2.ryy	2.ryy	2.r	2.r	.	2.r	.	2.r	2.r	.
.	.	.	.	.	.	8f/ 8d/	.	.	.	.	.	.	.	.	.	.	.	.	.	.
*	*	*	*	*	*	*	*2\right	*	*	*	*	*	*	*	*	*	*	*	*	*
4r	.	4ryy	2b-\	-na	.	8f/L 8d/	2b-\	.	.	.	.	.	.	.	.	.	.	.	.	.
.	.	.	.	.	.	8f/ 8d/	.	.	.	.	.	.	.	.	.	.	.	.	.	.
4r	.	4ryy	.	.	.	8f/ 8d/	.	.	.	.	.	.	.	.	.	.	.	.	.	.
.	.	.	.	.	.	8f/J 8d/	.	.	.	.	.	.	.	.	.	.	.	.	.	.
!!LO:PB:g=original
=31	=31	=31	=31	=31	=31	=31	=31	=31	=31	=31	=31	=31	=31	=31	=31	=31	=31	=31	=31	=31
4BB-/	.	4BB-/yy	2a-X/	zaw-	2F/	8r	(>2a-X/	.	2.ryy	2.ryy	2.r	2.r	2.r	2.r	.	2.r	.	2.r	2.r	.
.	.	.	.	.	.	8d/ 8B-/	.	.	.	.	.	.	.	.	.	.	.	.	.	.
4r	.	4ryy	.	.	.	8d/L 8B-/	.	.	.	.	.	.	.	.	.	.	.	.	.	.
.	.	.	.	.	.	8d/ 8B-/	.	.	.	.	.	.	.	.	.	.	.	.	.	.
4r	.	4ryy	8g/L	-sty-	4A-X/	8d/ 8B-/	8g/L	.	.	.	.	.	.	.	.	.	.	.	.	.
.	.	.	8f/J	.	.	8d/J 8B-/	8f/J	.	.	.	.	.	.	.	.	.	.	.	.	.
=32	=32	=32	=32	=32	=32	=32	=32	=32	=32	=32	=32	=32	=32	=32	=32	=32	=32	=32	=32	=32
2C/	.	2C/yy	2e-/	-dzo-	2G/	8r	2e-/	.	2.ryy	2.ryy	2.ryy	2.ryy	2.ryy	2.ryy	.	2.r	.	2.r	2.r	.
.	.	.	.	.	.	8c/	.	.	.	.	.	.	.	.	.	.	.	.	.	.
.	.	.	.	.	.	8c/L	.	.	.	.	.	.	.	.	.	.	.	.	.	.
.	.	.	.	.	.	8c/	.	.	.	.	.	.	.	.	.	.	.	.	.	.
4AA-X/	.	4AA-X/yy	8e-/L	-na	4c/	8c/	8e-/L	.	.	.	.	.	.	.	.	.	.	.	.	.
.	.	.	8f/J	.	.	8c/J	8f/J	.	.	.	.	.	.	.	.	.	.	.	.	.
=33	=33	=33	=33	=33	=33	=33	=33	=33	=33	=33	=33	=33	=33	=33	=33	=33	=33	=33	=33	=33
2BB-/	.	2BB-/yy	2g/	zpusz-	2B-/	8r	2g/	.	2.ryy	2.ryy	2.ryy	2.ryy	2.ryy	2.ryy	.	2.r	.	2.r	2.r	.
.	.	.	.	.	.	8e-/L 8B-/	.	.	.	.	.	.	.	.	.	.	.	.	.	.
.	.	.	.	.	.	8e-/ 8B-/	.	.	.	.	.	.	.	.	.	.	.	.	.	.
.	.	.	.	.	.	8e-/J 8B-/	.	.	.	.	.	.	.	.	.	.	.	.	.	.
*	*	*	*	*	*	*Xtremolo	*	*	*	*	*	*	*	*	*	*	*	*	*	*
4BB-/	.	4BB-/yy	4f/	-cza	4A-X/	8d/L 8B-/	4f/	.	.	.	.	.	.	.	.	.	.	.	.	.
.	.	.	.	.	.	8d/J 8B-/	.	.	.	.	.	.	.	.	.	.	.	.	.	.
=34	=34	=34	=34	=34	=34	=34	=34	=34	=34	=34	=34	=34	=34	=34	=34	=34	=34	=34	=34	=34
4E-\	.	4E-\yy	4e-/	wzrok	2.G/	8e-/L 8B-/	2e-/)	.	2.ryy	2.ryy	2.ryy	2.ryy	2.ryy	2.ryy	.	2.r	.	2.r	2.r	.
.	.	.	.	.	.	8B-/J	.	.	.	.	.	.	.	.	.	.	.	.	.	.
*	*	*	*	*	*	*tremolo	*	*	*	*	*	*	*	*	*	*	*	*	*	*
4r	.	4ryy	4r	.	.	8B-/L	.	.	.	.	.	.	.	.	.	.	.	.	.	.
.	.	.	.	.	.	8B-/	.	.	.	.	.	.	.	.	.	.	.	.	.	.
4E-\	.	4E-\yy	8g/	Lecz	.	8B-/	4r	.	.	.	.	.	.	.	.	.	.	.	.	.
.	.	.	8g/	u-	.	8B-/J	.	.	.	.	.	.	.	.	.	.	.	.	.	.
=35	=35	=35	=35	=35	=35	=35	=35	=35	=35	=35	=35	=35	=35	=35	=35	=35	=35	=35	=35	=35
*	*	*	*	*	*	*	*	*	*	*	*	*	*	*	*	*^	*	*	*	*
*	*	*	*	*	*tremolo	*	*	*	*	*	*	*	*	*	*	*	*2\right	*	*	*	*
4D\	.	4D\yy	4a-X/	-krad-	8F/L	8Bn/L	4r	.	2.ryy	2.ryy	2.ryy	2.ryy	2.ryy	2.ryy	.	(4a-X/	2.BX\	.	2.r	(4aa-X\	.
.	.	.	.	.	8F/	8B/	.	.	.	.	.	.	.	.	.	.	.	.	.	.	.
4r	.	4ryy	8g/	-kiem	8F/	8B/	8r	.	.	.	.	.	.	.	.	8g/)	.	.	.	8gg\)	.
.	.	.	8r	.	8F/	8B/	(16aa-X\LL	.	.	.	.	.	.	.	.	8r	.	.	.	8r	.
.	.	.	.	.	.	.	16gg\JJ)	.	.	.	.	.	.	.	.	.	.	.	.	.	.
4r	.	4ryy	8r	.	8F/	8B/	4r	.	.	.	.	.	.	.	.	8r	.	.	.	8r	.
!	!	!	!LO:N:vis=8	!	!	!	!	!	!	!	!	!	!	!	!	!LO:N:vis=8	!	!	!	!LO:N:vis=8	!
.	.	.	16g/	spoj-	8F/J	8B/J	.	.	.	.	.	.	.	.	.	16g/LL	.	.	.	16gg\LL	.
!	!	!	!LO:N:vis=8	!	!	!	!	!	!	!	!	!	!	!	!	!LO:N:vis=8	!	!	!	!LO:N:vis=8	!
.	.	.	16g/	-rzeć	.	.	.	.	.	.	.	.	.	.	.	16g/JJ	.	.	.	16gg\JJ	.
!!LO:PB:g=original
=36	=36	=36	=36	=36	=36	=36	=36	=36	=36	=36	=36	=36	=36	=36	=36	=36	=36	=36	=36	=36	=36
*	*	*tremolo	*	*	*	*	*	*	*	*	*	*	*	*	*	*	*	*	*	*	*
2.r	.	8E-\L	4cc\	moż-	8G/L	8c/L	4r	.	2.ryy	2.ryy	2.r	2.r	2.E-\	2.r	.	4cc/	2.c\	.	2.r	4ccc\	.
.	.	8E-\	.	.	8G/	8c/	.	.	.	.	.	.	.	.	.	.	.	.	.	.	.
.	.	8E-\	4cc\	-na	8G/	8c/	(16aa-X\LL	.	.	.	.	.	.	.	.	4r	.	.	.	4r	.
.	.	.	.	.	.	.	16gg\JJ)	.	.	.	.	.	.	.	.	.	.	.	.	.	.
.	.	8E-\	.	.	8G/	8c/	(16ff\LL	.	.	.	.	.	.	.	.	.	.	.	.	.	.
.	.	.	.	.	.	.	16ee-\JJ)	.	.	.	.	.	.	.	.	.	.	.	.	.	.
.	.	8E-\	8ee-\	kie-	8G/	8c/	(16dd\LL	.	.	.	.	.	.	.	.	4r	.	.	.	4r	.
.	.	.	.	.	.	.	16cc\JJ)	.	.	.	.	.	.	.	.	.	.	.	.	.	.
.	.	8E-\J	8cc\	-dy	8G/J	8c/J	8r	.	.	.	.	.	.	.	.	.	.	.	.	.	.
=37	=37	=37	=37	=37	=37	=37	=37	=37	=37	=37	=37	=37	=37	=37	=37	=37	=37	=37	=37	=37	=37
(2FF/	.	8F\L	4.an/	chło-	8c\L	8e-/L	(2ant/	.	2.ryy	2.ryy	2.ryy	2.ryy	(2c\	2.r	.	2.ryy	2e-\	.	2.r	2.r	.
.	.	8F\	.	.	8c\	8e-/	.	.	.	.	.	.	.	.	.	.	.	.	.	.	.
.	.	8F\	.	.	8c\	8e-/	.	.	.	.	.	.	.	.	.	.	.	.	.	.	.
.	.	8F\	8a/	-piec	8c\J	8e-/J	.	.	.	.	.	.	.	.	.	.	.	.	.	.	.
.	.	.	.	.	.	.	16qqg/LL	.	.	.	.	.	.	.	.	.	.	.	.	.	.
.	.	.	.	.	.	.	16qqa/JJ)	.	.	.	.	.	.	.	.	.	.	.	.	.	.
*	*	*	*	*	*Xtremolo	*Xtremolo	*	*	*	*	*	*	*	*	*	*	*	*	*	*	*
4F\)	.	8F\	8b-\	pa-	8B-/L	8d/L	8b-\L	.	.	.	.	.	4B-\)	.	.	.	4d\	.	.	.	.
.	.	8F\J	(16cc\LL	-trzy	8B-/J	8d/J	16cc\L	.	.	.	.	.	.	.	.	.	.	.	.	.	.
.	.	.	16dd\JJ)	.	.	.	16dd\JJ	.	.	.	.	.	.	.	.	.	.	.	.	.	.
=38	=38	=38	=38	=38	=38	=38	=38	=38	=38	=38	=38	=38	=38	=38	=38	=38	=38	=38	=38	=38	=38
*tremolo	*	*	*	*	*tremolo	*	*	*	*	*	*	*	*	*	*	*	*	*	*	*	*
8F\L	.	8FF/L	2f/	w bok	8A/L	2c/	2f/	.	2.ryy	2.ryy	2.ryy	2.ryy	4.A\	2.r	.	4r	4.c\	.	2.r	4r	.
8F\	.	8FF/	.	.	8A/	.	.	.	.	.	.	.	.	.	.	.	.	.	.	.	.
8F\	.	8FF/	.	.	8A/	.	.	.	.	.	.	.	.	.	.	4r	.	.	.	4r	.
8F\	.	8FF/	.	.	8A/J	.	.	.	.	.	.	.	8r	.	.	.	8rB	.	.	.	.
*	*	*	*	*	*Xtremolo	*	*	*	*	*	*	*	*	*	*	*	*	*	*	*	*
8F\	.	8FF/	(16d/LL	Lecz	8F/L 8D/	8B-/L	(16d/LL	.	.	.	.	.	4r	.	.	(16d/LL	4r	.	.	(16dd\LL	.
.	.	.	16en/JJ)	.	.	.	16en/	.	.	.	.	.	.	.	.	16eX/	.	.	.	16een\	.
8F\J	.	8FF/J	(16f/LL	u-	8F/J 8D/	8B-/J	16f/	.	.	.	.	.	.	.	.	16f/	.	.	.	16ff\	.
.	.	.	16g/JJ)	.	.	.	16g/JJ	.	.	.	.	.	.	.	.	16g/JJ	.	.	.	16gg\JJ)	.
=39	=39	=39	=39	=39	=39	=39	=39	=39	=39	=39	=39	=39	=39	=39	=39	=39	=39	=39	=39	=39	=39
*	*	*	*	*	*tremolo	*tremolo	*	*	*	*	*	*	*	*	*	*	*	*	*	*	*
8F\L	.	8C/L	4.a/	-krad-	8F/L	8A/L	8a/L)	.	2.ryy	2.ryy	2.ryy	2.ryy	2.r	2.r	.	4.a/	2.rB	.	2.r	4.aa\	.
8F\	.	8C/	.	.	8F/	8A/	8a/	.	.	.	.	.	.	.	.	.	.	.	.	.	.
8F\	.	8C/	.	.	8F/	8A/	8a/	.	.	.	.	.	.	.	.	.	.	.	.	.	.
8F\	.	8C/	8g/	-kiem	8F/	8A/	8g/J	.	.	.	.	.	.	.	.	8g/)	.	.	.	8gg\	.
8F\	.	8C/	16f/LL	spoj-	8F/	8A/	8f/L	.	.	.	.	.	.	.	.	(16f/LL	.	.	.	(16ff\LL	.
.	.	.	16g/JJ	.	.	.	.	.	.	.	.	.	.	.	.	16g/	.	.	.	16gg\	.
8F\J	.	8C/J	16a/LL	-rzeć	8F/J	8A/J	8f/J	.	.	.	.	.	.	.	.	16a/	.	.	.	16aa\	.
.	.	.	16b-/JJ	.	.	.	.	.	.	.	.	.	.	.	.	16b-/JJ	.	.	.	16bb-\JJ	.
=40	=40	=40	=40	=40	=40	=40	=40	=40	=40	=40	=40	=40	=40	=40	=40	=40	=40	=40	=40	=40	=40
*	*	*	*	*	*	*	*tremolo	*	*	*	*	*	*	*	*	*	*	*	*	*	*
8C/L	.	8CC/L	8.cc\L	moż-	8En/L	8B-/L	8g/L	.	2.ryy	2.ryy	2.ryy	2.ryy	2.r	2.r	.	8.cc/L)	2.rB	.	2.r	8.ccc\L	.
8C/	.	8CC/	.	.	8E/	8B-/	8g/	.	.	.	.	.	.	.	.	.	.	.	.	.	.
.	.	.	16dd\Jk	.	.	.	.	.	.	.	.	.	.	.	.	16dd/Jk	.	.	.	16ddd\Jk)	.
8C/	.	8CC/	4cc\	-na	8E/	8B-/	8g/	.	.	.	.	.	.	.	.	8cc/	.	.	.	8ccc\	.
8C/	.	8CC/	.	.	8E/	8B-/	8g/	.	.	.	.	.	.	.	.	8r	.	.	.	8r	.
8C/	.	8CC/	8b-/	kie-	8E/	8B-/	8g/	.	.	.	.	.	.	.	.	(8b-/L	.	.	.	(8bb-\L	.
8C/J	.	8CC/J	8a/	-dy	8E/J	8B-/J	8g/J	.	.	.	.	.	.	.	.	8a/J)	.	.	.	8aa\J)	.
!!LO:PB:g=original
=41	=41	=41	=41	=41	=41	=41	=41	=41	=41	=41	=41	=41	=41	=41	=41	=41	=41	=41	=41	=41	=41
8C/L	.	8C/L	4.g/	chło-	8En/L	8B-/L	8g/L	.	2.ryy	2.r	2.r	2.r	2.r	2.r	.	4.g/	2.rB	.	2.r	4.gg\	.
8C/	.	8C/	.	.	8E/	8B-/	8g/	.	.	.	.	.	.	.	.	.	.	.	.	.	.
8C/	.	8C/	.	.	8E/	8B-/	8g/	.	.	.	.	.	.	.	.	.	.	.	.	.	.
8C/	.	8C/	8g/	-piec	8E/	8B-/	8g/	.	.	.	.	.	.	.	.	8g/	.	.	.	8gg\	.
.	.	.	(16qqg/LL	.	.	.	.	.	.	.	.	.	.	.	.	(16qqg/LL	.	.	.	(16qqgg/LL	.
.	.	.	16qqa/JJ	.	.	.	.	.	.	.	.	.	.	.	.	16qqa/JJ	.	.	.	16qqaa/JJ	.
8C/	.	8C/	8b-/)	pa-	8E/	8B-/	8g/	.	.	.	.	.	.	.	.	8b-/L)	.	.	.	8bb-\L)	.
8C/J	.	8C/J	(16a/LL	-trzy	8E/J	8B-/J	8g/J	.	.	.	.	.	.	.	.	16a/L	.	.	.	16aa\L	.
.	.	.	16g/JJ)	.	.	.	.	.	.	.	.	.	.	.	.	16g/JJ	.	.	.	16gg\JJ	.
*	*	*	*	*	*Xtremolo	*Xtremolo	*Xtremolo	*	*	*	*	*	*	*	*	*	*	*	*	*	*
=42	=42	=42	=42	=42	=42	=42	=42	=42	=42	=42	=42	=42	=42	=42	=42	=42	=42	=42	=42	=42	=42
4F\	.	4FF/	4f/	w bok	4F/	4A/	8f/	.	2.ryy	2.ryy	2.r	2.r	8r	4f/ 4F/	.	4f/	2.rB	.	2.r	4ff\	.
.	.	.	.	.	.	.	8qdd/	.	.	.	.	.	(8qd/	.	.	.	.	.	.	.	.
.	.	.	.	.	.	.	(16cc\LL	.	.	.	.	.	(16c\LL)	.	.	.	.	.	.	.	.
.	.	.	.	.	.	.	16bn\JJ	.	.	.	.	.	16Bn\JJ	.	.	.	.	.	.	.	.
4r	.	4r	8r	.	8r	8r	8cc\)	.	.	.	.	.	4c\)	4r	.	4r	.	.	.	4r	.
.	.	.	(8cc\	kie-	8A/L	8c'/L	8r	.	.	.	.	.	.	.	.	.	.	.	.	.	.
4r	.	4r	8d/L)	.	8B-/	8d'/	8d'/L	.	.	.	.	.	(8B-X\L	4r	.	4r	.	.	.	4r	.
.	.	.	8en/J	-dy	8G/J	8B-'/J	8en'/J	.	.	.	.	.	8G\J)	.	.	.	.	.	.	.	.
=43	=43	=43	=43	=43	=43	=43	=43	=43	=43	=43	=43	=43	=43	=43	=43	=43	=43	=43	=43	=43	=43
4F\	.	2.ryy	4.f/	chło-	4F/	4A/	8f/	.	2.ryy	2.ryy	2.r	2.r	4.A\	4f/ 4F/	.	8r	2.rB	.	2.r	4r	.
.	.	.	.	.	.	.	8qdd/	.	.	.	.	.	.	.	.	8qdd/	.	.	.	.	.
.	.	.	.	.	.	.	(16cc\LL	.	.	.	.	.	.	.	.	16cc/LL	.	.	.	.	.
.	.	.	.	.	.	.	16bn\JJ	.	.	.	.	.	.	.	.	16bX/JJ	.	.	.	.	.
4r	.	.	.	.	8r	8r	8cc\)	.	.	.	.	.	.	4r	.	4cc/	.	.	.	8r	.
.	.	.	8cc\	-piec	8A/L	8c/L	8r	.	.	.	.	.	8A\L	.	.	.	.	.	.	(8ccc\L	.
4r	.	.	8d/L	pa-	8B-/	8d/	8d'/L	.	.	.	.	.	8B-\	4r	.	8d/L	.	.	.	8dd\)	.
.	.	.	8en/J	-trzy	8G/J	8B-/J	8en'/J	.	.	.	.	.	8G\J	.	.	8eX/J	.	.	.	8een'\J	.
=44	=44	=44	=44	=44	=44	=44	=44	=44	=44	=44	=44	=44	=44	=44	=44	=44	=44	=44	=44	=44	=44
4F\	.	2.ryy	4f/	w bok	4F/	4A/	4f/	.	2.ryy	2.ryy	4r	4r	4A\	4f/ 4F/	.	4f/	4rB	.	4r	4ff\	f
.	f	.	.	.	.	.	.	.	.	.	.	.	.	.	.	.	.	.	.	.	.
4F\	.	.	4r	.	4f/ 4A/	4cc/ 4f/	4ff\ 4a\	f	.	.	4F\	4f/	4A\	4f/ 4F/	f	4ff\ 4a\	2ryy	f	4aa\	4fff\	.
8.r	.	.	4r	.	8.r	8.r	8.r	.	.	.	4r	4r	4r	4r	.	4r	.	.	4r	4r	.
16F\	.	.	.	.	16c\	16A/	16f/	.	.	.	.	.	.	.	.	.	.	.	.	.	.
*	*	*	*	*	*	*	*	*	*	*	*	*	*	*	*	*v	*v	*	*	*	*
=45	=45	=45	=45	=45	=45	=45	=45	=45	=45	=45	=45	=45	=45	=45	=45	=45	=45	=45	=45	=45
4E-X\	.	2.ryy	2.r	.	4e-\	4B-/	4g/	.	2.ryy	2.ryy	2.r	2.r	2.r	2.r	.	2.r	.	2.r	2.r	.
4r	.	.	.	.	4r	4r	4r	.	.	.	.	.	.	.	.	.	.	.	.	.
4r	.	.	.	.	4r	4r	4r	.	.	.	.	.	.	.	.	.	.	.	.	.
=46	=46	=46	=46	=46	=46	=46	=46	=46	=46	=46	=46	=46	=46	=46	=46	=46	=46	=46	=46	=46
4C/	.	2.ryy	2.r;	.	4e-\	4f/ 4c/	4a/	.	2.ryy	2.ryy	2.r;	2.r	2.r;	2.r;	.	2.r;	.	2.r;	2.r;	.
4r	.	.	.	.	4r	4r	4r	.	.	.	.	.	.	.	.	.	.	.	.	.
4r;	.	.	.	.	4r;	4r;	4r;	.	.	.	.	.	.	.	.	.	.	.	.	.
==	==	==	==	==	==	==	==	==	==	==	==	==	==	==	==	==	==	==	==	==
*-	*-	*-	*-	*-	*-	*-	*-	*-	*-	*-	*-	*-	*-	*-	*-	*-	*-	*-	*-	*-
!!!system-decoration: [(s1,s2)]s3,s4,s5,s6,s7,s8,s9,s10,s11,s12,s13[(s14,s15)]
!!!RDF**kern: > = above
!!!RDF**kern: < = below
!!!EED: Leszek Kubiak
!!!EEV: 2021-05-10
!!!ENC: Mateusz Solarz
!!!END: 2021-04-27
!!!YEC: Copyright 2022 Narodowy Instytut Fryderyka Chopina (https://polishscores.org)
!!!YEM: Licence CC BY 4.0 (https://creativecommons.org/licenses/by/4.0)
